X: 4689
T: Breeches the
C:trad.
S:Martin Hayes
I:speed 300
M:6/8
K:G
G2A |: B2G A2G | B2A G2A | B2G A2G | E2D  G2A |
B2c d2e | d2B G2A | G2E E2D |[1 D3 G2A :| [2 D3 d2e |
|: d2B A2G | A2B d2e | d2B A2G | E3 d2e |
g2e  d2e | B2A G2A | G2E E2D |[1 D3 d2e :| [2 D3 g2a |
|: b2g a2g | b2a g2a | b2g a2g | e3  g2b |
e2g d2e | B2A G2A | G2E E2D |[1 D3 g2a :| D3 e2d |
B2d e2d | B2d e2d | B2G A2G | E3 e2d |
B2d e2d | B2A G2A | G2E E2D | D3e2d |
B2d e2d | B2d e2d | B2G A2G | E3 g2b |
e2g d2e | B2A G2A | G2E E2D | D3 G2A |
M:2/4
